Numix-GalliumOS/32/actions/mail-copy.svg

<?xml version="1.0" encoding="UTF-8" standalone="no"?>
<svg
   xmlns:dc="http://purl.org/dc/elements/1.1/"
   xmlns:cc="http://creativecommons.org/ns#"
   xmlns:rdf="http://www.w3.org/1999/02/22-rdf-syntax-ns#"
   xmlns:svg="http://www.w3.org/2000/svg"
   xmlns="http://www.w3.org/2000/svg"
   xmlns:sodipodi="http://sodipodi.sourceforge.net/DTD/sodipodi-0.dtd"
   xmlns:inkscape="http://www.inkscape.org/namespaces/inkscape"
   width="32"
   height="32"
   viewBox="0 0 32 32"
   id="svg2"
   version="1.1"
   inkscape:version="0.91 r"
   sodipodi:docname="mail-copy.svg">
  <metadata
     id="metadata24">
    <rdf:RDF>
      <cc:Work
         rdf:about="">
        <dc:format>image/svg+xml</dc:format>
        <dc:type
           rdf:resource="http://purl.org/dc/dcmitype/StillImage" />
      </cc:Work>
    </rdf:RDF>
  </metadata>
  <defs
     id="defs22" />
  <sodipodi:namedview
     pagecolor="#ffffff"
     bordercolor="#666666"
     borderopacity="1"
     objecttolerance="10"
     gridtolerance="10"
     guidetolerance="10"
     inkscape:pageopacity="0"
     inkscape:pageshadow="2"
     inkscape:window-width="1920"
     inkscape:window-height="1056"
     id="namedview20"
     showgrid="false"
     inkscape:zoom="10.429825"
     inkscape:cx="-5.8747023"
     inkscape:cy="26.965393"
     inkscape:window-x="0"
     inkscape:window-y="24"
     inkscape:window-maximized="1"
     inkscape:current-layer="svg2" />
  <path
     style="fill:#1d699f;fill-opacity:1"
     d="m 1.5,7.9999999e-8 c -1.5,0 -1.5,0 -1.5,1.500001020000001 L 0,16.499999 C 0,18 0,18 1.5,18 l 21,0 c 1.500001,0 1.500001,0 1.500001,-1.500001 0,-4.828124 0,-12.2109359 0,-14.9999979 C 24.000001,7.9999999e-8 24.000001,7.9999999e-8 22.5,7.9999999e-8 Z"
     id="path4-4"
     inkscape:connector-curvature="0" />
  <g
     style="fill-opacity:0.10199998"
     id="g6-9"
     transform="matrix(0.74999999,0,0,0.74999999,0,-5.9999999)">
    <path
       style="fill:#ffffff"
       d="M 0.875,8.015625 C 0.03125,8.109375 0,8.511719 0,10.011719 L 16,20 32,10.011719 C 32,8.015625 32,8.015625 30,8.015625 l -28,0 c -0.5,0 -0.84375,-0.03125 -1.125,0 z"
       id="path8-6"
       inkscape:connector-curvature="0" />
    <path
       style="fill:#000000"
       d="M 32,10 16,20 32,30 Z"
       id="path10-7"
       inkscape:connector-curvature="0" />
  </g>
  <path
     style="fill:#268bd2"
     d="M 9.4999991,14 C 7.999999,14 7.999999,14 7.999999,15.500001 l 0,14.999998 C 7.999999,32 7.999999,32 9.4999991,32 L 30.499999,32 C 32,32 32,32 32,30.499999 32,25.671875 32,18.289063 32,15.500001 32,14 32,14 30.499999,14 Z"
     id="path4"
     inkscape:connector-curvature="0" />
  <g
     style="fill-opacity:0.10199998"
     id="g6"
     transform="matrix(0.74999999,0,0,0.74999999,7.999999,7.9999999)">
    <path
       style="fill:#ffffff"
       d="M 0.875,8.015625 C 0.03125,8.109375 0,8.511719 0,10.011719 L 16,20 32,10.011719 C 32,8.015625 32,8.015625 30,8.015625 l -28,0 c -0.5,0 -0.84375,-0.03125 -1.125,0 z"
       id="path8"
       inkscape:connector-curvature="0" />
    <path
       style="fill:#000000"
       d="M 32,10 16,20 32,30 Z"
       id="path10"
       inkscape:connector-curvature="0" />
  </g>
</svg>

<svg xmlns="http://www.w3.org/2000/svg" viewBox="0 0 32 32">
 <path d="m 1.5 0 c -1.5 0 -1.5 0 -1.5 1.5 l 0 15 c 0 1.5 0 1.5 1.5 1.5 l 21 0 c 1.5 0 1.5 0 1.5 -1.5 0 -4.828 0 -12.211 0 -15 c 0 -1.5 0 -1.5 -1.5 -1.5" style="fill:#1d699f;fill-opacity:1"/>
 <g transform="matrix(0.74999999,0,0,0.74999999,0,-5.9999999)" style="fill-opacity:0.102">
  <path d="m 0.875 8.02 c -0.844 0.094 -0.875 0.496 -0.875 1.996 l 16 9.988 16 -9.988 c 0 -1.996 0 -1.996 -2 -1.996 l -28 0 c -0.5 0 -0.844 -0.031 -1.125 0 z" style="fill:#fff"/>
  <path d="m 32 10 -16 10 16 10" style="fill:#000"/>
 </g>
 <path d="m 9.5 14 c -1.5 0 -1.5 0 -1.5 1.5 l 0 15 c 0 1.5 0 1.5 1.5 1.5 l 21 0 c 1.5 0 1.5 0 1.5 -1.5 0 -4.828 0 -12.211 0 -15 0 -1.5 0 -1.5 -1.5 -1.5" style="fill:#268bd2"/>
 <g transform="matrix(0.74999999,0,0,0.74999999,7.999999,7.9999999)" style="fill-opacity:0.102">
  <path d="m 0.875 8.02 c -0.844 0.094 -0.875 0.496 -0.875 1.996 l 16 9.988 16 -9.988 c 0 -1.996 0 -1.996 -2 -1.996 l -28 0 c -0.5 0 -0.844 -0.031 -1.125 0 z" style="fill:#fff"/>
  <path d="m 32 10 -16 10 16 10" style="fill:#000"/>
 </g>
</svg>
